X:471
T:McFarley's
R:reel
H:See also "The Girls of Castlebar", #597
D:Paddy Glackin: In Full Spate
D:Altan: Harvest Storm
Z:id:hn-reel-471
M:C|
K:D
dD~D2 EDB,E|D2FA BAFA|dDcD BDAD|EDFA BAFA|
dD~D2 EDB,E|D2FA BAFA|(3Bcd ec dBAF|1 EDEF DFAc:|2 EDEF D2ag||
|:fgab afde|fd~d2 bdad|efga ge=cd|e=c~c2 acge|
fgaf bfaf|gfeg fdB^c|defd ecdB|1 AFEF D2ag:|2 AFEF D2 (3ABc||
P:Version 2:
|:dD~D2 EDB,D|D2FA BAFA|dDcD BDAD|EDAD BAFA|
[1 dD~D2 EDB,D|D2FA BAFA|(3Bcd ec dBAF|EDEF D2 (3ABc:|
[2 "also F3D E3F" DEFD EDB,D|D2FA BAFA|(3Bcd ec dBAF|EDEF D2ag||
|:fgab afde|fdad bdad|efga ge=cd|e=cgc acge|
fgaf bfaf|gfeg fdB^c|defd ecdB|1 AFEF D2ag:|2 AFEF D2 (3ABc||

